!!!SOCIAL_FUNCTION:	songs of the bear dance
!!!PDT:	1922
!!!OTL: No_1_The_Dust_of_the_Red_Wagon.krn
!!!REG: Southwest
!!!LANG: Non-Tone
!!!LING_GROUP: Uto-Aztecan
**kern
*staff1
=1-
=
*clefF4
*k[b-e-]
*M2/4
8d\L
16d\L
16B-\JJ
8d\L
(16B-\L
16G\JJ)
=2
8G\L
8G\J
4G\
=3
12B-\L
12G\
12B-\J
8G\L
8F\J
=4
8F\L
8F\J
4F\
=5
8d\L
16d\L
16B-\JJ
8d\L
(16B-\L
16G\JJ)
=6
8G\L
8G\J
4G\
=7
12B-\L
12G\
12B-\J
8G\L
8F\J
=8
8F\L
8F\J
4F\
=9
8F\L
8B-\J
8.G\L
16G\Jk
=10
8B-\L
8G\J
8B-\L
8G\J
=11
8G\L
8G\J
4G\
=12
8G\L
8B-\J
8.G\L
16G\Jk
=13
8B-\L
8G\J
8B-\L
8G\J
=14
8G\L
8G\J
4G\
==:|!
*-
